src/amo/components/CategoryIcon/img/feeds-news-blogging.svg

<svg xmlns="http://www.w3.org/2000/svg" width="64" height="64" viewBox="0 0 64 64">
  <g class="two" fill="#0F1126" fill-rule="evenodd">
    <path d="M11.8153846,33.4769231 L11.8153846,2.46153846 C11.8153846,1.10206831 12.9174529,0 14.2769231,0 L61.5384615,0 C62.8979317,0 64,1.10206831 64,2.46153846 L64,55.6307692 C64,60.2394702 60.2394702,64 55.6307692,64 L8.36923077,64 C3.76052985,64 0,60.2394702 0,55.6307692 L0,35.9384615 C0,34.5789914 1.10206831,33.4769231 2.46153846,33.4769231 L11.8153846,33.4769231 Z M11.8153846,38.4 L4.92307692,38.4 L4.92307692,55.6307692 C4.92307692,57.5205298 6.47947015,59.0769231 8.36923077,59.0769231 C10.2589914,59.0769231 11.8153846,57.5205298 11.8153846,55.6307692 L11.8153846,38.4 Z M16.7384615,4.92307692 L16.7384615,3.71697572 C16.7384615,4.70991994 16.7384615,6.09748864 16.7384615,10.7951355 L16.7384615,55.6307692 C16.7384615,56.8579528 16.4718303,58.0249988 15.993552,59.0769231 L55.6307692,59.0769231 C57.5205298,59.0769231 59.0769231,57.5205298 59.0769231,55.6307692 L59.0769231,4.92307692 L16.7384615,4.92307692 Z"/>
  </g>
  <g class="one" fill="#0F1126">
    <path fill-rule="nonzero" d="M43.8153846,13.5384615 C43.1356495,13.5384615 42.5846154,12.9874274 42.5846154,12.3076923 C42.5846154,11.6279572 43.1356495,11.0769231 43.8153846,11.0769231 L51.6923077,11.0769231 C52.3720428,11.0769231 52.9230769,11.6279572 52.9230769,12.3076923 C52.9230769,12.9874274 52.3720428,13.5384615 51.6923077,13.5384615 L43.8153846,13.5384615 Z M43.8153846,23.3846154 C43.1356495,23.3846154 42.5846154,22.8335812 42.5846154,22.1538462 C42.5846154,21.4741111 43.1356495,20.9230769 43.8153846,20.9230769 L51.6923077,20.9230769 C52.3720428,20.9230769 52.9230769,21.4741111 52.9230769,22.1538462 C52.9230769,22.8335812 52.3720428,23.3846154 51.6923077,23.3846154 L43.8153846,23.3846154 Z M24.1230769,33.2307692 C23.4433418,33.2307692 22.8923077,32.6797351 22.8923077,32 C22.8923077,31.3202649 23.4433418,30.7692308 24.1230769,30.7692308 L51.6923077,30.7692308 C52.3720428,30.7692308 52.9230769,31.3202649 52.9230769,32 C52.9230769,32.6797351 52.3720428,33.2307692 51.6923077,33.2307692 L24.1230769,33.2307692 Z M24.1230769,11.0769231 L35.9384615,11.0769231 C36.6181966,11.0769231 37.1692308,11.6279572 37.1692308,12.3076923 L37.1692308,22.1538462 C37.1692308,22.8335812 36.6181966,23.3846154 35.9384615,23.3846154 L24.1230769,23.3846154 C23.4433418,23.3846154 22.8923077,22.8335812 22.8923077,22.1538462 L22.8923077,12.3076923 C22.8923077,11.6279572 23.4433418,11.0769231 24.1230769,11.0769231 Z M25.3538462,20.9230769 L34.7076923,20.9230769 L34.7076923,13.5384615 L25.3538462,13.5384615 L25.3538462,20.9230769 Z M32,50.4615385 C32.6797351,50.4615385 33.2307692,51.0125726 33.2307692,51.6923077 C33.2307692,52.3720428 32.6797351,52.9230769 32,52.9230769 L24.1230769,52.9230769 C23.4433418,52.9230769 22.8923077,52.3720428 22.8923077,51.6923077 C22.8923077,51.0125726 23.4433418,50.4615385 24.1230769,50.4615385 L32,50.4615385 Z M32,40.6153846 C32.6797351,40.6153846 33.2307692,41.1664188 33.2307692,41.8461538 C33.2307692,42.5258889 32.6797351,43.0769231 32,43.0769231 L24.1230769,43.0769231 C23.4433418,43.0769231 22.8923077,42.5258889 22.8923077,41.8461538 C22.8923077,41.1664188 23.4433418,40.6153846 24.1230769,40.6153846 L32,40.6153846 Z M39.8769231,40.6153846 L51.6923077,40.6153846 C52.3720428,40.6153846 52.9230769,41.1664188 52.9230769,41.8461538 L52.9230769,51.6923077 C52.9230769,52.3720428 52.3720428,52.9230769 51.6923077,52.9230769 L39.8769231,52.9230769 C39.197188,52.9230769 38.6461538,52.3720428 38.6461538,51.6923077 L38.6461538,41.8461538 C38.6461538,41.1664188 39.197188,40.6153846 39.8769231,40.6153846 Z M41.1076923,50.4615385 L50.4615385,50.4615385 L50.4615385,43.0769231 L41.1076923,43.0769231 L41.1076923,50.4615385 Z"/>
  </g>
</svg>

<svg xmlns="http://www.w3.org/2000/svg" width="64" height="64"><path d="M11.815 33.477V2.462A2.462 2.462 0 0 1 14.277 0h47.261A2.462 2.462 0 0 1 64 2.462V55.63C64 60.239 60.24 64 55.63 64H8.37C3.76 64 0 60.24 0 55.63V35.939a2.462 2.462 0 0 1 2.462-2.461h9.353Zm0 4.923H4.923v17.23a3.464 3.464 0 0 0 3.446 3.447 3.464 3.464 0 0 0 3.446-3.446V38.4Zm4.923-33.477V3.717v51.914a8.306 8.306 0 0 1-.744 3.446H55.63a3.464 3.464 0 0 0 3.446-3.446V4.923H16.738Z" class="two" fill="#0F1126" fill-rule="evenodd"/><path d="M43.815 13.538a1.23 1.23 0 1 1 0-2.461h7.877a1.23 1.23 0 1 1 0 2.461h-7.877Zm0 9.847a1.23 1.23 0 0 1 0-2.462h7.877a1.23 1.23 0 0 1 0 2.462h-7.877ZM24.123 33.23a1.23 1.23 0 1 1 0-2.462h27.57a1.23 1.23 0 1 1 0 2.462h-27.57Zm0-22.154h11.815c.68 0 1.231.551 1.231 1.23v9.847c0 .68-.55 1.23-1.23 1.23H24.122a1.23 1.23 0 0 1-1.23-1.23v-9.846c0-.68.55-1.231 1.23-1.231Zm1.23 9.846h9.355v-7.385h-9.354v7.385ZM32 50.462a1.23 1.23 0 1 1 0 2.461h-7.877a1.23 1.23 0 1 1 0-2.461H32Zm0-9.847a1.23 1.23 0 0 1 0 2.462h-7.877a1.23 1.23 0 0 1 0-2.462H32Zm7.877 0h11.815c.68 0 1.231.551 1.231 1.231v9.846c0 .68-.551 1.231-1.23 1.231H39.876a1.23 1.23 0 0 1-1.23-1.23v-9.847c0-.68.55-1.23 1.23-1.23Zm1.23 9.847h9.355v-7.385h-9.354v7.385Z" class="one" fill="#0F1126"/></svg>
